svg/user/user_edit_line.svg

<?xml version="1.0" encoding="UTF-8"?>
<svg width="24px" height="24px" viewBox="0 0 24 24" version="1.1" xmlns="http://www.w3.org/2000/svg" xmlns:xlink="http://www.w3.org/1999/xlink">
    <title>user_edit_line</title>
    <g id="Icon" stroke="none" stroke-width="1" fill="none" fill-rule="evenodd">
        <g id="User" transform="translate(-720.000000, 0.000000)">
            <g id="user_edit_line" transform="translate(720.000000, 0.000000)">
                <path d="M24,0 L24,24 L0,24 L0,0 L24,0 Z M12.5935,23.2578 L12.5819,23.2595 L12.5109,23.295 L12.4919,23.2987 L12.4767,23.295 L12.4057,23.2595 C12.3958,23.2564 12.387,23.259 12.3821,23.2649 L12.378,23.2758 L12.3609,23.7031 L12.3659,23.7235 L12.3769,23.7357 L12.4805,23.8097 L12.4953,23.8136 L12.5071,23.8097 L12.6107,23.7357 L12.6233,23.7197 L12.6267,23.7031 L12.6096,23.2758 C12.6076,23.2657 12.601,23.2593 12.5935,23.2578 Z M12.8584,23.1453 L12.8445,23.1473 L12.6598,23.2397 L12.6499,23.2499 L12.6472,23.2611 L12.6651,23.6906 L12.6699,23.7034 L12.6784,23.7105 L12.8793,23.8032 C12.8914,23.8069 12.9022,23.803 12.9078,23.7952 L12.9118,23.7812 L12.8777,23.1665 C12.8753,23.1546 12.8674,23.147 12.8584,23.1453 Z M12.143,23.1473 C12.1332,23.1424 12.1222,23.1453 12.1156,23.1526 L12.1099,23.1665 L12.0758,23.7812 C12.0751,23.7927 12.0828,23.8019 12.0926,23.8046 L12.1083,23.8032 L12.3092,23.7105 L12.3186,23.7024 L12.3225,23.6906 L12.3404,23.2611 L12.3372,23.2485 L12.3278,23.2397 L12.143,23.1473 Z" id="MingCute" fill-rule="nonzero"></path>
                <path d="M6,7 C6,4.23858 8.23858,2 11,2 C13.7614,2 16,4.23858 16,7 C16,9.76142 13.7614,12 11,12 C8.23858,12 6,9.76142 6,7 Z M11,4 C9.34315,4 8,5.34315 8,7 C8,8.65685 9.34315,10 11,10 C12.6569,10 14,8.65685 14,7 C14,5.34315 12.6569,4 11,4 Z M4.41339,17.6013 C4.08967,18.0111 4,18.3206 4,18.5 C4,18.6179 4.03468,18.7323 4.20457,18.8839 C4.4021,19.0602 4.75493,19.2536 5.31564,19.4271 C6.43509,19.7733 8.0713,19.9481 10.0214,19.9899 C10.5736,20.0017 11.0116,20.4589 10.9998,21.0111 C10.9879,21.5632 10.5307,22.0013 9.97857,21.9894 C7.98239,21.9466 6.1186,21.7689 4.72462,21.3378 C4.02863,21.1225 3.37138,20.8209 2.87303,20.3762 C2.34704,19.9069 2,19.2745 2,18.5 C2,17.713 2.35805,16.9767 2.84397,16.3615 C3.33788,15.7363 4.02143,15.1602 4.82227,14.6715 C6.42467,13.6937 8.60453,13 11,13 C11.4475,13 11.887,13.0242 12.3161,13.0698 C12.8653,13.1282 13.2632,13.6207 13.2048,14.1699 C13.1465,14.7191 12.654,15.117 12.1048,15.0586 C11.7444,15.0203 11.3754,15 11,15 C8.97719,15 7.15705,15.5898 5.86402,16.3788 C5.21714,16.7735 4.72913,17.2015 4.41339,17.6013 Z M21.2123,14.0336 C20.236,13.0573 18.6531,13.0573 17.6768,14.0336 L14.2591,17.4513 C14.0296,17.6808 13.8808,17.9786 13.8349,18.2998 L13.5051,20.6084 C13.4107,21.2689 13.9768,21.8353 14.6376,21.7409 L16.9461,21.4111 C17.2674,21.3652 17.5652,21.2163 17.7947,20.9869 L21.2123,17.5692 C22.1887,16.5929 22.1887,15.0099 21.2123,14.0336 Z M19.091,15.4478 C19.2863,15.2526 19.6029,15.2526 19.7981,15.4478 C19.9934,15.6431 19.9934,15.9597 19.7981,16.155 L16.4983,19.4548 L15.6733,19.5726 L15.7912,18.7477 L19.091,15.4478 Z" id="形状" fill="#09244B"></path>
            </g>
        </g>
    </g>
</svg>

<svg xmlns="http://www.w3.org/2000/svg" width="24" height="24"><g fill="none" fill-rule="evenodd"><path d="M24 0v24H0V0h24ZM12.594 23.258l-.012.002-.071.035-.02.004-.014-.004-.071-.036c-.01-.003-.019 0-.024.006l-.004.01-.017.428.005.02.01.013.104.074.015.004.012-.004.104-.074.012-.016.004-.017-.017-.427c-.002-.01-.009-.017-.016-.018Zm.264-.113-.014.002-.184.093-.01.01-.003.011.018.43.005.012.008.008.201.092c.012.004.023 0 .029-.008l.004-.014-.034-.614c-.003-.012-.01-.02-.02-.022Zm-.715.002a.023.023 0 0 0-.027.006l-.006.014-.034.614c0 .012.007.02.017.024l.015-.002.201-.093.01-.008.003-.011.018-.43-.003-.012-.01-.01-.184-.092Z"/><path fill="#09244B" d="M6 7a5 5 0 1 1 10 0A5 5 0 0 1 6 7Zm5-3a3 3 0 1 0 0 6 3 3 0 0 0 0-6ZM4.413 17.601c-.323.41-.413.72-.413.899 0 .118.035.232.205.384.197.176.55.37 1.11.543 1.12.346 2.756.521 4.706.563a1 1 0 1 1-.042 2c-1.997-.043-3.86-.221-5.254-.652-.696-.216-1.354-.517-1.852-.962C2.347 19.906 2 19.274 2 18.5c0-.787.358-1.523.844-2.139.494-.625 1.177-1.2 1.978-1.69C6.425 13.695 8.605 13 11 13c.447 0 .887.024 1.316.07a1 1 0 0 1-.211 1.989C11.745 15.02 11.375 15 11 15c-2.023 0-3.843.59-5.136 1.379-.647.394-1.135.822-1.45 1.222Zm16.8-3.567a2.5 2.5 0 0 0-3.536 0l-3.418 3.417a1.5 1.5 0 0 0-.424.849l-.33 2.308a1.001 1.001 0 0 0 1.133 1.133l2.308-.33a1.5 1.5 0 0 0 .849-.424l3.417-3.418a2.5 2.5 0 0 0 0-3.535Zm-2.122 1.414a.5.5 0 0 1 .707.707l-3.3 3.3-.825.118.118-.825 3.3-3.3Z"/></g></svg>
